X:1
T:Lady Mary
M:3/4
L:1/4
K:D
 D| F3/2 F/2 F| G/2 A3/2 A-| A3-| A2- A/2D/2| F3/2 F/2 F| G/2- F3/2 E|\
 D2- D/2D/2| F2 F| G3/2 F/2 G| A3-| A2 A,| F/2 F3/2- F/2F/2| G/2- F3/2 E|\
 D3-| D2 z/2 A/2| B/2 B3/2 B| d- c B| A3-| A2 A| B B B| d- c B| A3-|\
 A2- A/2D/2| F2- F/2F/2| G/2 F3/2G/2-A/2| A3-| A2- A/2A,/2| F2 F/2F/2|\
 F2 E| D3-| D2|
